public/icons/img/send-money.svg

<?xml version="1.0" encoding="UTF-8"?>
<svg width="68px" height="50px" viewBox="0 0 68 50" version="1.1" xmlns="http://www.w3.org/2000/svg" xmlns:xlink="http://www.w3.org/1999/xlink">
    <title>UI Elements/Icon / Payments / Send Money</title>
    <defs>
        <path d="M2,0 L55.375,0 C56.4795695,3.72131305e-15 57.375,0.8954305 57.375,2 L57.375,31.2142857 C57.375,32.3188552 56.4795695,33.2142857 55.375,33.2142857 L2,33.2142857 C0.8954305,33.2142857 2.09738034e-15,32.3188552 0,31.2142857 L0,2 C-1.3527075e-16,0.8954305 0.8954305,2.02906125e-16 2,0 Z" id="path-1"></path>
        <filter x="-12.3%" y="-16.4%" width="125.7%" height="135.5%" filterUnits="objectBoundingBox" id="filter-3">
            <feOffset dx="0" dy="2" in="SourceAlpha" result="shadowOffsetOuter1"></feOffset>
            <feColorMatrix values="0 0 0 0 0   0 0 0 0 0   0 0 0 0 0  0 0 0 0.1 0" type="matrix" in="shadowOffsetOuter1" result="shadowMatrixOuter1"></feColorMatrix>
            <feMerge>
                <feMergeNode in="shadowMatrixOuter1"></feMergeNode>
                <feMergeNode in="SourceGraphic"></feMergeNode>
            </feMerge>
        </filter>
    </defs>
    <g id="Iconography-&amp;-Interface-Details" stroke="none" stroke-width="1" fill="none" fill-rule="evenodd">
        <g id="Icons" transform="translate(-1121.000000, -483.000000)">
            <g id="UI-Elements/Icon-/-Payments-/-Send-Money" transform="translate(1119.000000, 477.000000)">
                <rect id="Rectangle" x="0" y="0" width="72" height="62"></rect>
                <g id="Send-money" transform="translate(2.250000, 6.642857)">
                    <g id="Group">
                        <rect id="Rectangle-Copy-3" stroke="#004B2E" stroke-width="5" fill="#00B16E" x="2.5" y="2.5" width="53.5" height="28.2142857" rx="2"></rect>
                        <g id="Group-2" transform="translate(1.125000, 1.107143)" fill="#004B2E">
                            <ellipse id="Oval" cx="51.9701087" cy="4.17307692" rx="4.2798913" ry="4.17307692"></ellipse>
                            <ellipse id="Oval" cx="4.2798913" cy="4.17307692" rx="4.2798913" ry="4.17307692"></ellipse>
                            <ellipse id="Oval" cx="4.2798913" cy="26.8269231" rx="4.2798913" ry="4.17307692"></ellipse>
                        </g>
                    </g>
                    <ellipse id="Oval" fill="#004B2E" cx="29.25" cy="17.1607143" rx="6.75" ry="6.08928571"></ellipse>
                    <g id="Rectangle-3" transform="translate(7.875000, 13.285714)" fill="#000000" fill-opacity="0.15">
                        <path d="M3,0 L50.625,0 L50.625,0 L50.625,15.9285714 C50.625,18.1377104 48.834139,19.9285714 46.625,19.9285714 L0,19.9285714 L0,19.9285714 L0,3 C-2.02906125e-16,1.34314575 1.34314575,3.04359188e-16 3,0 Z" id="Mask"></path>
                    </g>
                    <g id="Card-Services" transform="translate(10.125000, 15.500000)">
                        <g id="Group" transform="translate(28.687500, 16.607143) rotate(-360.000000) translate(-28.687500, -16.607143) ">
                            <g id="Group-5" transform="translate(0.000000, -0.000000)">
                                <mask id="mask-2" fill="white">
                                    <use xlink:href="#path-1"></use>
                                </mask>
                                <use id="Rectangle" fill="#00B16E" xlink:href="#path-1"></use>
                                <polygon id="Rectangle-Copy" fill="#007E4E" opacity="0.25" mask="url(#mask-2)" points="57.375 -2.44049225e-12 57.375 33.2142857 9.76996262e-15 33.2142857"></polygon>
                            </g>
                        </g>
                    </g>
                    <rect id="Rectangle" fill="#015B44" x="10.125" y="19.9285714" width="57.375" height="4.42857143"></rect>
                    <g id="Group" filter="url(#filter-3)" transform="translate(22.500000, 19.928571)" fill="#FFFFFF">
                        <path d="M23.9451966,0.00301634993 C23.7332566,0.0256002096 23.5750495,0.185006688 23.5750495,0.374981802 L23.5750495,4.81693896 L12.7929271,4.81693896 C12.5630787,4.81826862 12.3765283,4.98431661 12.375,5.18890441 L12.375,10.321878 C12.376494,10.5264488 12.5630596,10.6924832 12.7929271,10.6938435 L23.5750495,10.6938435 L23.5750495,15.1358006 C23.5795276,15.28458 23.6825116,15.417417 23.8392285,15.4732119 C23.9944515,15.5290033 24.172061,15.4957957 24.2914671,15.390851 L32.5063447,8.01547457 C32.6645518,7.87068078 32.6645518,7.63953034 32.5063447,7.49476375 L24.2914671,0.108845248 C24.2004233,0.0278140467 24.0720649,-0.0107087604 23.9452004,0.00257426263 L23.9451966,0.00301634993 Z" id="Path"></path>
                        <path d="M8.58723076,8.85866657 C8.49322776,8.86796489 8.40369783,8.90516495 8.33655228,8.9649476 L0.123847581,16.341021 C0.0447649683,16.4114317 0,16.5070847 0,16.6067236 C0,16.7063625 0.0447649683,16.8020154 0.123847581,16.8724261 L8.33655228,24.2484995 C8.45741655,24.3547806 8.63796235,24.3866649 8.79463019,24.328212 C8.95129803,24.2697591 9.05276886,24.13425 9.05276886,23.9828072 L9.05276886,19.5509733 L19.8320388,19.5509733 C20.0618264,19.5496435 20.2483274,19.3835798 20.25,19.1789727 L20.25,14.045514 C20.2528386,13.9458751 20.2095672,13.8488958 20.1304846,13.7758255 C20.0528918,13.704085 19.9439684,13.6642321 19.8320579,13.6629023 L9.05278796,13.6629023 L9.05278796,9.23106849 C9.05278796,9.12478746 9.00205637,9.02381879 8.91252643,8.95340803 C8.82449006,8.88166749 8.70661292,8.84845679 8.58724222,8.85908489 L8.58723076,8.85866657 Z" id="Path"></path>
                    </g>
                </g>
            </g>
        </g>
    </g>
</svg>

<svg xmlns="http://www.w3.org/2000/svg" xmlns:xlink="http://www.w3.org/1999/xlink" width="68" height="50"
     xmlns:v="https://vecta.io/nano">
    <defs>
        <path d="M2 0h53.375a2 2 0 0 1 2 2v29.214a2 2 0 0 1-2 2H2a2 2 0 0 1-2-2V2a2 2 0 0 1 2-2z" id="A"/>
        <filter x="-12.3%" y="-16.4%" width="125.7%" height="135.5%" id="B">
            <feOffset dy="2" in="SourceAlpha"/>
            <feColorMatrix values="0 0 0 0 0 0 0 0 0 0 0 0 0 0 0 0 0 0 0.1 0" result="B"/>
            <feMerge>
                <feMergeNode in="B"/>
                <feMergeNode in="SourceGraphic"/>
            </feMerge>
        </filter>
    </defs>
    <g transform="translate(.25 .643)" fill="none" fill-rule="evenodd">
        <rect stroke="#004b2e" stroke-width="5" fill="#00b16e" x="2.5" y="2.5" width="53.5" height="28.214" rx="2"/>
        <g fill="#004b2e">
            <ellipse cx="53.095" cy="5.28" rx="4.28" ry="4.173"/>
            <ellipse cx="5.405" cy="5.28" rx="4.28" ry="4.173"/>
            <ellipse cx="5.405" cy="27.934" rx="4.28" ry="4.173"/>
            <ellipse cx="29.25" cy="17.161" rx="6.75" ry="6.089"/>
        </g>
        <path d="M10.875 13.286H58.5v15.93a4 4 0 0 1-4 4H7.875v-16.93a3 3 0 0 1 3-3z" fill="#000" fill-opacity=".15"/>
        <g transform="translate(10.125 15.5)">
            <mask id="C" fill="#fff">
                <use xlink:href="#A"/>
            </mask>
            <use fill="#00b16e" xlink:href="#A"/>
            <path fill="#007e4e" opacity=".25" mask="url(#C)" d="M57.375 0v33.214H0z"/>
        </g>
        <path fill="#015b44" d="M10.125 19.93H67.5v4.43H10.125z"/>
        <g filter="url(#B)" transform="translate(22.5 19.929)" fill="#fff">
            <path d="M23.945.003c-.212.023-.37.182-.37.372v4.442H12.793c-.23.001-.416.167-.418.372v5.133c.001.205.188.37.418.372h10.782v4.442c.004.15.107.282.264.337a.46.46 0 0 0 .452-.082l8.215-7.375c.158-.145.158-.376 0-.52L24.29.11c-.09-.08-.22-.12-.346-.106h0z"/>
            <path d="M8.587 8.86c-.094.01-.184.046-.25.106L.124 16.34c-.08.07-.124.166-.124.266s.045.195.124.266l8.213 7.376a.46.46 0 0 0 .458.08c.157-.058.258-.194.258-.345V19.55h10.78c.23-.001.416-.167.418-.372v-5.133c.003-.1-.04-.197-.12-.27a.45.45 0 0 0-.298-.113H9.053V9.23c0-.106-.05-.207-.14-.278a.45.45 0 0 0-.325-.094h0z"/>
        </g>
    </g>
</svg>
